Adwaita++-Dark/actions/16/core_prefs-gtkpod-category.svg

<svg fill="none" height="16" viewBox="0 0 16 16" width="16" xmlns="http://www.w3.org/2000/svg" xmlns:xlink="http://www.w3.org/1999/xlink">
  <clipPath id="clip0">
    <path d="m0 0h16v16h-16z"/>
  </clipPath>
  <g clip-path="url(#clip0)" fill="#e6ddff">
    <path clip-rule="evenodd" d="m12 1.5h-8v13h8zm-8-1.5c-.82843 0-1.5.671573-1.5 1.5v13c0 .8284.67157 1.5 1.5 1.5h8c.8284 0 1.5-.6716 1.5-1.5v-13c0-.828427-.6716-1.5-1.5-1.5z" fill-rule="evenodd"/>
    <path d="m4.5 2h7v4h-7z"/>
    <path clip-rule="evenodd" d="m8 12c.82843 0 1.5-.6716 1.5-1.5 0-.82843-.67157-1.5-1.5-1.5s-1.5.67157-1.5 1.5c0 .8284.67157 1.5 1.5 1.5zm0 1.5c1.65685 0 3-1.3431 3-3 0-1.65685-1.34315-3-3-3s-3 1.34315-3 3c0 1.6569 1.34315 3 3 3z" fill-rule="evenodd"/>
  </g>
</svg>

<svg xmlns="http://www.w3.org/2000/svg" fill="none" width="16" height="16" viewBox="0 0 16 16">
 <g clip-path="url(#clip0)">
  <path fill="#E6DDFF" fill-rule="evenodd" d="M12 1.5H4L4 14.5H12V1.5ZM4 0C3.17157 0 2.5 0.671573 2.5 1.5V14.5C2.5 15.3284 3.17157 16 4 16H12C12.8284 16 13.5 15.3284 13.5 14.5V1.5C13.5 0.671573 12.8284 0 12 0H4Z" clip-rule="evenodd"/>
  <rect fill="#E6DDFF" width="7" height="4" x="4.5" y="2"/>
  <path fill="#E6DDFF" fill-rule="evenodd" d="M8 12C8.82843 12 9.5 11.3284 9.5 10.5C9.5 9.67157 8.82843 9 8 9C7.17157 9 6.5 9.67157 6.5 10.5C6.5 11.3284 7.17157 12 8 12ZM8 13.5C9.65685 13.5 11 12.1569 11 10.5C11 8.84315 9.65685 7.5 8 7.5C6.34315 7.5 5 8.84315 5 10.5C5 12.1569 6.34315 13.5 8 13.5Z" clip-rule="evenodd"/>
 </g>
 <defs>
  <clipPath id="clip0">
   <rect fill="#fff" width="16" height="16"/>
  </clipPath>
 </defs>
</svg>
